Site26/img/svg/ship_star.svg

<svg width="80" height="79" fill="none" xmlns="http://www.w3.org/2000/svg">
  <path d="m41.6053 33.3741.1521 1.9466 1.4907-1.2611L59.0373 20.702 45.527 36.275l-1.3025 1.5013 1.9819.1511L66.8408 39.5l-20.6344 1.5726-1.9819.1511 1.3025 1.5013 13.5103 15.573-15.7892-13.3576-1.4907-1.2611-.1521 1.9466L40 66.1658l-1.6053-20.5399-.1521-1.9466-1.4907 1.2611L20.9627 58.298 34.473 42.725l1.3025-1.5013-1.9819-.1511L13.1592 39.5l20.6344-1.5726 1.9819-.1511-1.3025-1.5013-13.5103-15.573 15.7892 13.3576 1.4907 1.2611.1521-1.9466L40 12.8342l1.6053 20.5399Z" stroke="#fff" stroke-width="2"/>
</svg>

<svg width="80" height="79" viewBox="0 0 80 79" fill="none" xmlns="http://www.w3.org/2000/svg">
<path d="M41.6053 33.3741L41.7574 35.3207L43.2481 34.0596L59.0373 20.702L45.527 36.275L44.2245 37.7763L46.2064 37.9274L66.8408 39.5L46.2064 41.0726L44.2245 41.2237L45.527 42.725L59.0373 58.298L43.2481 44.9404L41.7574 43.6793L41.6053 45.6259L40 66.1658L38.3947 45.6259L38.2426 43.6793L36.7519 44.9404L20.9627 58.298L34.473 42.725L35.7755 41.2237L33.7936 41.0726L13.1592 39.5L33.7936 37.9274L35.7755 37.7763L34.473 36.275L20.9627 20.702L36.7519 34.0596L38.2426 35.3207L38.3947 33.3741L40 12.8342L41.6053 33.3741Z" stroke="white" stroke-width="2"/>
</svg>
